(Created with emc2b post processor 2014/12/23 20:57)
(tool change to 5 mm End Mill)
T4 M06 G43
G17 G90 G21
G00 Z20 S7000 M03
X18.101 Y93.912 
Z5 
G01 Z-3 F100 
G02 X17.894 Y90.084 I-0.104 J-1.913 F500 
X18.101 Y93.912 I0.105 J1.913  
G01 X18.21 Y95.915  
G02 X17.788 Y88.083 I-0.211 J-3.915  
X18.21 Y95.915 I0.211 J3.915  
G00 Z20 
X18.101 Y93.912 
Z5 
G01 Z-3 F100 
G02 X17.894 Y90.084 I-0.104 J-1.913 F500 
X18.101 Y93.912 I0.105 J1.913  
G01 X18.21 Y95.915  
G02 X17.788 Y88.083 I-0.211 J-3.915  
X18.21 Y95.915 I0.211 J3.915  
G00 Z20 
X48.101 Y93.912 S7000 M03
Z5 
G01 Z-3 F100 
G02 X47.895 Y90.084 I-0.103 J-1.913 F500 
X48.101 Y93.912 I0.103 J1.913  
G01 X48.21 Y95.915  
G02 X47.788 Y88.083 I-0.211 J-3.915  
X48.21 Y95.915 I0.211 J3.915  
G00 Z20 
X48.101 Y93.912 
Z5 
G01 Z-3 F100 
G02 X47.895 Y90.084 I-0.103 J-1.913 F500 
X48.101 Y93.912 I0.103 J1.913  
G01 X48.21 Y95.915  
G02 X47.788 Y88.083 I-0.211 J-3.915  
X48.21 Y95.915 I0.211 J3.915  
G00 Z20 
X78.102 Y93.912 S7000 M03
Z5 
G01 Z-3 F100 
G02 X77.895 Y90.084 I-0.105 J-1.913 F500 
X78.102 Y93.912 I0.104 J1.913  
G01 X78.21 Y95.915  
G02 X77.788 Y88.083 I-0.211 J-3.915  
X78.21 Y95.915 I0.211 J3.915  
G00 Z20 
X78.102 Y93.912 
Z5 
G01 Z-3 F100 
G02 X77.895 Y90.084 I-0.105 J-1.913 F500 
X78.102 Y93.912 I0.104 J1.913  
G01 X78.21 Y95.915  
G02 X77.788 Y88.083 I-0.211 J-3.915  
X78.21 Y95.915 I0.211 J3.915  
G00 Z20 
X108.102 Y93.912 S7000 M03
Z5 
G01 Z-3 F100 
G02 X107.894 Y90.084 I-0.105 J-1.913 F500 
X108.102 Y93.912 I0.105 J1.913  
G01 X108.21 Y95.915  
G02 X107.788 Y88.083 I-0.211 J-3.915  
X108.21 Y95.915 I0.211 J3.915  
G00 Z20 
X108.102 Y93.912 
Z5 
G01 Z-3 F100 
G02 X107.894 Y90.084 I-0.105 J-1.913 F500 
X108.102 Y93.912 I0.105 J1.913  
G01 X108.21 Y95.915  
G02 X107.788 Y88.083 I-0.211 J-3.915  
X108.21 Y95.915 I0.211 J3.915  
G00 Z20 
X138.102 Y93.912 S7000 M03
Z5 
G01 Z-3 F100 
G02 X137.895 Y90.084 I-0.105 J-1.913 F500 
X138.102 Y93.912 I0.104 J1.913  
G01 X138.21 Y95.915  
G02 X137.788 Y88.083 I-0.211 J-3.915  
X138.21 Y95.915 I0.211 J3.915  
G00 Z20 
X138.102 Y93.912 
Z5 
G01 Z-3 F100 
G02 X137.895 Y90.084 I-0.105 J-1.913 F500 
X138.102 Y93.912 I0.104 J1.913  
G01 X138.21 Y95.915  
G02 X137.788 Y88.083 I-0.211 J-3.915  
X138.21 Y95.915 I0.211 J3.915  
G00 Z20 
X18.102 Y66.912 S7000 M03
Z5 
G01 Z-3 F100 
G02 X17.895 Y63.085 I-0.104 J-1.913 F500 
X18.102 Y66.912 I0.103 J1.913  
G01 X18.21 Y68.915  
G02 X17.788 Y61.084 I-0.211 J-3.915  
X18.21 Y68.915 I0.211 J3.915  
G00 Z20 
X18.102 Y66.912 
Z5 
G01 Z-3 F100 
G02 X17.895 Y63.085 I-0.104 J-1.913 F500 
X18.102 Y66.912 I0.103 J1.913  
G01 X18.21 Y68.915  
G02 X17.788 Y61.084 I-0.211 J-3.915  
X18.21 Y68.915 I0.211 J3.915  
G00 Z20 
X48.101 Y66.912 S7000 M03
Z5 
G01 Z-3 F100 
G02 X47.895 Y63.085 I-0.103 J-1.913 F500 
X48.101 Y66.912 I0.103 J1.913  
G01 X48.21 Y68.915  
G02 X47.788 Y61.084 I-0.211 J-3.915  
X48.21 Y68.915 I0.211 J3.915  
G00 Z20 
X48.101 Y66.912 
Z5 
G01 Z-3 F100 
G02 X47.895 Y63.085 I-0.103 J-1.913 F500 
X48.101 Y66.912 I0.103 J1.913  
G01 X48.21 Y68.915  
G02 X47.788 Y61.084 I-0.211 J-3.915  
X48.21 Y68.915 I0.211 J3.915  
G00 Z20 
X78.101 Y66.912 S7000 M03
Z5 
G01 Z-3 F100 
G02 X77.894 Y63.085 I-0.103 J-1.913 F500 
X78.101 Y66.912 I0.104 J1.913  
G01 X78.21 Y68.915  
G02 X77.788 Y61.084 I-0.211 J-3.915  
X78.21 Y68.915 I0.211 J3.915  
G00 Z20 
X78.101 Y66.912 
Z5 
G01 Z-3 F100 
G02 X77.894 Y63.085 I-0.103 J-1.913 F500 
X78.101 Y66.912 I0.104 J1.913  
G01 X78.21 Y68.915  
G02 X77.788 Y61.084 I-0.211 J-3.915  
X78.21 Y68.915 I0.211 J3.915  
G00 Z20 
X108.101 Y66.912 S7000 M03
Z5 
G01 Z-3 F100 
G02 X107.894 Y63.085 I-0.103 J-1.913 F500 
X108.101 Y66.912 I0.104 J1.913  
G01 X108.21 Y68.915  
G02 X107.788 Y61.084 I-0.211 J-3.915  
X108.21 Y68.915 I0.211 J3.915  
G00 Z20 
X108.101 Y66.912 
Z5 
G01 Z-3 F100 
G02 X107.894 Y63.085 I-0.103 J-1.913 F500 
X108.101 Y66.912 I0.104 J1.913  
G01 X108.21 Y68.915  
G02 X107.788 Y61.084 I-0.211 J-3.915  
X108.21 Y68.915 I0.211 J3.915  
G00 Z20 
X138.102 Y66.912 S7000 M03
Z5 
G01 Z-3 F100 
G02 X137.895 Y63.085 I-0.104 J-1.913 F500 
X138.102 Y66.912 I0.103 J1.913  
G01 X138.21 Y68.915  
G02 X137.788 Y61.084 I-0.211 J-3.915  
X138.21 Y68.915 I0.211 J3.915  
G00 Z20 
X138.102 Y66.912 
Z5 
G01 Z-3 F100 
G02 X137.895 Y63.085 I-0.104 J-1.913 F500 
X138.102 Y66.912 I0.103 J1.913  
G01 X138.21 Y68.915  
G02 X137.788 Y61.084 I-0.211 J-3.915  
X138.21 Y68.915 I0.211 J3.915  
G00 Z20 
X25.976 Y26.781 S7000 M03
Z5 
G01 Z-3 F100 
G02 X26.299 Y26.718 I0.04 J-0.653 F500 
G01 X26.299 Y25.284  
G02 X25.634 Y26.69 I-0.312 J0.712  
X25.976 Y26.781 I0.366 J-0.689  
G01 X25.924 Y28.787  
G02 X28.299 Y27.56 I0.084 J-2.748  
G01 X28.299 Y24.441  
G02 X23.522 Y27.288 I-2.31 J1.553  
X25.924 Y28.787 I2.484 J-1.306  
G01 X25.874 Y30.791  
G02 X30.299 Y28.095 I0.134 J-4.758  
G01 X30.299 Y23.906  
G02 X21.516 Y27.702 I-4.309 J2.088  
X25.874 Y30.791 I4.486 J-1.711  
G01 X25.818 Y32.794  
G02 X32.3 Y28.533 I0.186 J-6.777  
G01 X32.3 Y23.465  
G02 X19.646 Y28.416 I-6.304 J2.532  
X25.818 Y32.794 I6.355 J-2.42  
G00 Z20 
(tool change to 6 mm Drill Bit)
T110 M06 G43
X63 Y40 S7000 M03
G83 Q3 G98 X63 Y40 Z-3 R5 F100 
X93 Y40  
X63 Y21  
X93 Y21  
G80
(tool change to 2 mm Drill Bit)
T101 M06 G43
G00 X69 Y40 S7000 M03
G83 Q3 X69 Y40 Z-3 R5  
X99 Y40  
X69 Y21  
X99 Y21  
G80
(tool change to 6 mm Drill Bit)
T110 M06 G43
G00 X132 Y40 S18000 M03
G83 Q2 X132 Y40 Z-6 R5 F200 
X142 Y30  
X132 Y20  
X122 Y30  
G80
T0 M06 M02
