(Created with emc2b post processor 2015/02/03 19:24)
(tool change to 5 mm End Mill)
T4 M06 G43
G17 G90 G21
(Sketch 2)
G00 X19.5 Y29.25 S12000 M03
Z10 
G01 Z-0.5 F100 
G02 X19.5 Y31.25 I0 J1 F625 
G01 X37.5 Y31.25  
X37.5 Y19.25  
X1.5 Y19.25  
X1.5 Y31.25  
X19.5 Y31.25  
G02 X19.5 Y29.25 I0 J-1  
G01 Z-1 F100 
G02 X19.5 Y31.25 I0 J1 F625 
G01 X37.5 Y31.25  
X37.5 Y19.25  
X1.5 Y19.25  
X1.5 Y31.25  
X19.5 Y31.25  
G02 X19.5 Y29.25 I0 J-1  
G01 Z-1.5 F100 
G02 X19.5 Y31.25 I0 J1 F625 
G01 X37.5 Y31.25  
X37.5 Y19.25  
X1.5 Y19.25  
X1.5 Y31.25  
X19.5 Y31.25  
G02 X19.5 Y29.25 I0 J-1  
G01 Z-2 F100 
G02 X19.5 Y31.25 I0 J1 F625 
G01 X37.5 Y31.25  
X37.5 Y19.25  
X1.5 Y19.25  
X1.5 Y31.25  
X19.5 Y31.25  
G02 X19.5 Y29.25 I0 J-1  
G01 Z-2.5 F100 
G02 X19.5 Y31.25 I0 J1 F625 
G01 X37.5 Y31.25  
X37.5 Y19.25  
X1.5 Y19.25  
X1.5 Y31.25  
X19.5 Y31.25  
G02 X19.5 Y29.25 I0 J-1  
G01 Z-3 F100 
G02 X19.5 Y31.25 I0 J1 F625 
G01 X37.5 Y31.25  
X37.5 Y19.25  
X1.5 Y19.25  
X1.5 Y31.25  
X19.5 Y31.25  
G02 X19.5 Y29.25 I0 J-1  
G01 Z-3.5 F100 
G02 X19.5 Y31.25 I0 J1 F625 
G01 X37.5 Y31.25  
X37.5 Y19.25  
X1.5 Y19.25  
X1.5 Y31.25  
X19.5 Y31.25  
G02 X19.5 Y29.25 I0 J-1  
G01 Z-4 F100 
G02 X19.5 Y31.25 I0 J1 F625 
G01 X37.5 Y31.25  
X37.5 Y19.25  
X1.5 Y19.25  
X1.5 Y31.25  
X19.5 Y31.25  
G02 X19.5 Y29.25 I0 J-1  
G00 Z40 
G90
X180 Y40.5 S12000 M03
G83 Q0.5 G98 X180 Y40.5 Z-4 R10 F100 
X207 Y10  
G80
T0 M06 M02
