(Created with emc2b post processor 2015/02/03 19:35)
(tool change to 5 mm End Mill)
T4 M06 G43
G17 G90 G21
(Circle 2)
G00 X29.469 Y15.53 S12000 M03
Z10 
G01 Z-0.5 F100 
G02 X28.055 Y16.944 I-0.707 J0.707 F625 
X30 Y17.75 I1.944 J-1.944  
X32.75 Y15 I0 J-2.75  
X30 Y12.25 I-2.75 J0  
X27.25 Y15 I0 J2.75  
X28.055 Y16.944 I2.75 J0  
X29.469 Y15.53 I0.707 J-0.707  
G01 Z-1 F100 
G02 X28.055 Y16.944 I-0.707 J0.707 F625 
X30 Y17.75 I1.944 J-1.944  
X32.75 Y15 I0 J-2.75  
X30 Y12.25 I-2.75 J0  
X27.25 Y15 I0 J2.75  
X28.055 Y16.944 I2.75 J0  
X29.469 Y15.53 I0.707 J-0.707  
G01 Z-1.5 F100 
G02 X28.055 Y16.944 I-0.707 J0.707 F625 
X30 Y17.75 I1.944 J-1.944  
X32.75 Y15 I0 J-2.75  
X30 Y12.25 I-2.75 J0  
X27.25 Y15 I0 J2.75  
X28.055 Y16.944 I2.75 J0  
X29.469 Y15.53 I0.707 J-0.707  
G01 Z-2 F100 
G02 X28.055 Y16.944 I-0.707 J0.707 F625 
X30 Y17.75 I1.944 J-1.944  
X32.75 Y15 I0 J-2.75  
X30 Y12.25 I-2.75 J0  
X27.25 Y15 I0 J2.75  
X28.055 Y16.944 I2.75 J0  
X29.469 Y15.53 I0.707 J-0.707  
G01 Z-2.5 F100 
G02 X28.055 Y16.944 I-0.707 J0.707 F625 
X30 Y17.75 I1.944 J-1.944  
X32.75 Y15 I0 J-2.75  
X30 Y12.25 I-2.75 J0  
X27.25 Y15 I0 J2.75  
X28.055 Y16.944 I2.75 J0  
X29.469 Y15.53 I0.707 J-0.707  
G01 Z-3 F100 
G02 X28.055 Y16.944 I-0.707 J0.707 F625 
X30 Y17.75 I1.944 J-1.944  
X32.75 Y15 I0 J-2.75  
X30 Y12.25 I-2.75 J0  
X27.25 Y15 I0 J2.75  
X28.055 Y16.944 I2.75 J0  
X29.469 Y15.53 I0.707 J-0.707  
G01 Z-3.5 F100 
G02 X28.055 Y16.944 I-0.707 J0.707 F625 
X30 Y17.75 I1.944 J-1.944  
X32.75 Y15 I0 J-2.75  
X30 Y12.25 I-2.75 J0  
X27.25 Y15 I0 J2.75  
X28.055 Y16.944 I2.75 J0  
X29.469 Y15.53 I0.707 J-0.707  
G01 Z-4 F100 
G02 X28.055 Y16.944 I-0.707 J0.707 F625 
X30 Y17.75 I1.944 J-1.944  
X32.75 Y15 I0 J-2.75  
X30 Y12.25 I-2.75 J0  
X27.25 Y15 I0 J2.75  
X28.055 Y16.944 I2.75 J0  
X29.469 Y15.53 I0.707 J-0.707  
G00 Z40 
G90
(Circle 3)
X219.469 Y15.53 S12000 M03
Z10 
G01 Z-0.5 F100 
G02 X218.055 Y16.944 I-0.707 J0.707 F625 
X220 Y17.75 I1.944 J-1.944  
X222.75 Y15 I0 J-2.75  
X220 Y12.25 I-2.75 J0  
X217.25 Y15 I0 J2.75  
X218.055 Y16.944 I2.75 J0  
X219.469 Y15.53 I0.707 J-0.707  
G01 Z-1 F100 
G02 X218.055 Y16.944 I-0.707 J0.707 F625 
X220 Y17.75 I1.944 J-1.944  
X222.75 Y15 I0 J-2.75  
X220 Y12.25 I-2.75 J0  
X217.25 Y15 I0 J2.75  
X218.055 Y16.944 I2.75 J0  
X219.469 Y15.53 I0.707 J-0.707  
G01 Z-1.5 F100 
G02 X218.055 Y16.944 I-0.707 J0.707 F625 
X220 Y17.75 I1.944 J-1.944  
X222.75 Y15 I0 J-2.75  
X220 Y12.25 I-2.75 J0  
X217.25 Y15 I0 J2.75  
X218.055 Y16.944 I2.75 J0  
X219.469 Y15.53 I0.707 J-0.707  
G01 Z-2 F100 
G02 X218.055 Y16.944 I-0.707 J0.707 F625 
X220 Y17.75 I1.944 J-1.944  
X222.75 Y15 I0 J-2.75  
X220 Y12.25 I-2.75 J0  
X217.25 Y15 I0 J2.75  
X218.055 Y16.944 I2.75 J0  
X219.469 Y15.53 I0.707 J-0.707  
G01 Z-2.5 F100 
G02 X218.055 Y16.944 I-0.707 J0.707 F625 
X220 Y17.75 I1.944 J-1.944  
X222.75 Y15 I0 J-2.75  
X220 Y12.25 I-2.75 J0  
X217.25 Y15 I0 J2.75  
X218.055 Y16.944 I2.75 J0  
X219.469 Y15.53 I0.707 J-0.707  
G01 Z-3 F100 
G02 X218.055 Y16.944 I-0.707 J0.707 F625 
X220 Y17.75 I1.944 J-1.944  
X222.75 Y15 I0 J-2.75  
X220 Y12.25 I-2.75 J0  
X217.25 Y15 I0 J2.75  
X218.055 Y16.944 I2.75 J0  
X219.469 Y15.53 I0.707 J-0.707  
G01 Z-3.5 F100 
G02 X218.055 Y16.944 I-0.707 J0.707 F625 
X220 Y17.75 I1.944 J-1.944  
X222.75 Y15 I0 J-2.75  
X220 Y12.25 I-2.75 J0  
X217.25 Y15 I0 J2.75  
X218.055 Y16.944 I2.75 J0  
X219.469 Y15.53 I0.707 J-0.707  
G01 Z-4 F100 
G02 X218.055 Y16.944 I-0.707 J0.707 F625 
X220 Y17.75 I1.944 J-1.944  
X222.75 Y15 I0 J-2.75  
X220 Y12.25 I-2.75 J0  
X217.25 Y15 I0 J2.75  
X218.055 Y16.944 I2.75 J0  
X219.469 Y15.53 I0.707 J-0.707  
G00 Z40 
T0 M06 M02
