(Created with emc2b post processor 2015/02/03 18:54)
(tool change to 5 mm End Mill)
T4 M06 G43
G17 G90 G21
(Circle 2)
G00 X24.469 Y26.03 S12000 M03
Z10 
G01 Z-0.5 F100 
G02 X23.055 Y27.444 I-0.707 J0.707 F625 
X25 Y28.25 I1.944 J-1.944  
X27.75 Y25.5 I0 J-2.75  
X25 Y22.75 I-2.75 J0  
X22.25 Y25.5 I0 J2.75  
X23.055 Y27.444 I2.75 J0  
X24.469 Y26.03 I0.707 J-0.707  
G01 Z-1 F100 
G02 X23.055 Y27.444 I-0.707 J0.707 F625 
X25 Y28.25 I1.944 J-1.944  
X27.75 Y25.5 I0 J-2.75  
X25 Y22.75 I-2.75 J0  
X22.25 Y25.5 I0 J2.75  
X23.055 Y27.444 I2.75 J0  
X24.469 Y26.03 I0.707 J-0.707  
G01 Z-1.5 F100 
G02 X23.055 Y27.444 I-0.707 J0.707 F625 
X25 Y28.25 I1.944 J-1.944  
X27.75 Y25.5 I0 J-2.75  
X25 Y22.75 I-2.75 J0  
X22.25 Y25.5 I0 J2.75  
X23.055 Y27.444 I2.75 J0  
X24.469 Y26.03 I0.707 J-0.707  
G01 Z-2 F100 
G02 X23.055 Y27.444 I-0.707 J0.707 F625 
X25 Y28.25 I1.944 J-1.944  
X27.75 Y25.5 I0 J-2.75  
X25 Y22.75 I-2.75 J0  
X22.25 Y25.5 I0 J2.75  
X23.055 Y27.444 I2.75 J0  
X24.469 Y26.03 I0.707 J-0.707  
G01 Z-2.5 F100 
G02 X23.055 Y27.444 I-0.707 J0.707 F625 
X25 Y28.25 I1.944 J-1.944  
X27.75 Y25.5 I0 J-2.75  
X25 Y22.75 I-2.75 J0  
X22.25 Y25.5 I0 J2.75  
X23.055 Y27.444 I2.75 J0  
X24.469 Y26.03 I0.707 J-0.707  
G01 Z-3 F100 
G02 X23.055 Y27.444 I-0.707 J0.707 F625 
X25 Y28.25 I1.944 J-1.944  
X27.75 Y25.5 I0 J-2.75  
X25 Y22.75 I-2.75 J0  
X22.25 Y25.5 I0 J2.75  
X23.055 Y27.444 I2.75 J0  
X24.469 Y26.03 I0.707 J-0.707  
G01 Z-3.5 F100 
G02 X23.055 Y27.444 I-0.707 J0.707 F625 
X25 Y28.25 I1.944 J-1.944  
X27.75 Y25.5 I0 J-2.75  
X25 Y22.75 I-2.75 J0  
X22.25 Y25.5 I0 J2.75  
X23.055 Y27.444 I2.75 J0  
X24.469 Y26.03 I0.707 J-0.707  
G01 Z-4 F100 
G02 X23.055 Y27.444 I-0.707 J0.707 F625 
X25 Y28.25 I1.944 J-1.944  
X27.75 Y25.5 I0 J-2.75  
X25 Y22.75 I-2.75 J0  
X22.25 Y25.5 I0 J2.75  
X23.055 Y27.444 I2.75 J0  
X24.469 Y26.03 I0.707 J-0.707  
G00 Z40 
G90
(Circle 3)
X214.469 Y26.03 S12000 M03
Z10 
G01 Z-0.5 F100 
G02 X213.055 Y27.444 I-0.707 J0.707 F625 
X215 Y28.25 I1.944 J-1.944  
X217.75 Y25.5 I0 J-2.75  
X215 Y22.75 I-2.75 J0  
X212.25 Y25.5 I0 J2.75  
X213.055 Y27.444 I2.75 J0  
X214.469 Y26.03 I0.707 J-0.707  
G01 Z-1 F100 
G02 X213.055 Y27.444 I-0.707 J0.707 F625 
X215 Y28.25 I1.944 J-1.944  
X217.75 Y25.5 I0 J-2.75  
X215 Y22.75 I-2.75 J0  
X212.25 Y25.5 I0 J2.75  
X213.055 Y27.444 I2.75 J0  
X214.469 Y26.03 I0.707 J-0.707  
G01 Z-1.5 F100 
G02 X213.055 Y27.444 I-0.707 J0.707 F625 
X215 Y28.25 I1.944 J-1.944  
X217.75 Y25.5 I0 J-2.75  
X215 Y22.75 I-2.75 J0  
X212.25 Y25.5 I0 J2.75  
X213.055 Y27.444 I2.75 J0  
X214.469 Y26.03 I0.707 J-0.707  
G01 Z-2 F100 
G02 X213.055 Y27.444 I-0.707 J0.707 F625 
X215 Y28.25 I1.944 J-1.944  
X217.75 Y25.5 I0 J-2.75  
X215 Y22.75 I-2.75 J0  
X212.25 Y25.5 I0 J2.75  
X213.055 Y27.444 I2.75 J0  
X214.469 Y26.03 I0.707 J-0.707  
G01 Z-2.5 F100 
G02 X213.055 Y27.444 I-0.707 J0.707 F625 
X215 Y28.25 I1.944 J-1.944  
X217.75 Y25.5 I0 J-2.75  
X215 Y22.75 I-2.75 J0  
X212.25 Y25.5 I0 J2.75  
X213.055 Y27.444 I2.75 J0  
X214.469 Y26.03 I0.707 J-0.707  
G01 Z-3 F100 
G02 X213.055 Y27.444 I-0.707 J0.707 F625 
X215 Y28.25 I1.944 J-1.944  
X217.75 Y25.5 I0 J-2.75  
X215 Y22.75 I-2.75 J0  
X212.25 Y25.5 I0 J2.75  
X213.055 Y27.444 I2.75 J0  
X214.469 Y26.03 I0.707 J-0.707  
G01 Z-3.5 F100 
G02 X213.055 Y27.444 I-0.707 J0.707 F625 
X215 Y28.25 I1.944 J-1.944  
X217.75 Y25.5 I0 J-2.75  
X215 Y22.75 I-2.75 J0  
X212.25 Y25.5 I0 J2.75  
X213.055 Y27.444 I2.75 J0  
X214.469 Y26.03 I0.707 J-0.707  
G01 Z-4 F100 
G02 X213.055 Y27.444 I-0.707 J0.707 F625 
X215 Y28.25 I1.944 J-1.944  
X217.75 Y25.5 I0 J-2.75  
X215 Y22.75 I-2.75 J0  
X212.25 Y25.5 I0 J2.75  
X213.055 Y27.444 I2.75 J0  
X214.469 Y26.03 I0.707 J-0.707  
G00 Z40 
T0 M06 M02
